src/icons/outline/communication/microphone-off.svg

<svg width="24" height="24" viewBox="0 0 24 24" fill="none" xmlns="http://www.w3.org/2000/svg">
<g clip-path="url(#clip0_4191_696)">
<path d="M5.21572 9.2637C5.52921 9.32859 5.76943 9.60877 5.76943 9.93753V12.2842C5.8156 13.8883 6.48928 15.4007 7.65225 16.5098C8.81532 17.6098 10.3757 18.215 11.9911 18.1875H11.9999C12.9044 18.1875 13.7907 17.9952 14.6122 17.6377L14.6034 17.6465C14.9541 17.4909 15.3596 17.647 15.5165 17.9951C15.6734 18.3435 15.5167 18.7465 15.1659 18.9024C14.3814 19.2415 13.5414 19.4521 12.6923 19.5254V22.3125C12.6923 22.6884 12.3784 23 11.9999 23C11.6215 23 11.3075 22.6883 11.3075 22.3125V19.544C9.58145 19.4156 7.94761 18.7008 6.69228 17.5C5.26153 16.1434 4.43082 14.2732 4.38467 12.3116V9.93753C4.38467 9.5617 4.69859 9.25003 5.07705 9.25003L5.21572 9.2637Z" fill="#3C3B44"/>
<path fill-rule="evenodd" clip-rule="evenodd" d="M11.9999 1.00003C12.6553 0.990866 13.2646 1.11912 13.8554 1.35745C14.4553 1.60492 14.9812 1.95331 15.4335 2.40238C15.8858 2.85151 16.237 3.38315 16.4862 3.96976C16.7355 4.55643 16.8554 5.18003 16.8554 5.81253V11.3125C16.9384 12.5042 16.5967 13.7048 15.9413 14.7315L16.9755 15.8037C17.2984 15.3914 17.585 14.9609 17.788 14.4844C18.0834 13.7969 18.2401 13.0447 18.2401 12.293V9.93753C18.2401 9.5617 18.5541 9.25003 18.9325 9.25003L19.0702 9.2637C19.3841 9.3283 19.6249 9.6085 19.6249 9.93753V12.293C19.6157 13.228 19.4306 14.154 19.0614 15.0157C18.7845 15.6755 18.4062 16.2806 17.954 16.8213L20.8065 19.7735L20.7968 19.7637C21.0644 20.0387 21.055 20.4695 20.7782 20.7354C20.5013 21.0012 20.0674 20.9928 19.7997 20.7178L7.35732 7.83792L3.19424 3.53909C2.92661 3.26416 2.93509 2.83326 3.21182 2.56742C3.4887 2.30162 3.92263 2.31108 4.19033 2.58597L7.16299 5.67484C7.18146 5.08837 7.29216 4.52019 7.51357 3.97952C7.7628 3.38369 8.114 2.86033 8.56631 2.41117C9.01855 1.96215 9.55381 1.60452 10.1444 1.36624C10.7352 1.11876 11.3815 1.01837 11.9999 1.00003ZM11.9999 2.37503C11.5568 2.33838 11.0954 2.45771 10.6708 2.63187C10.2463 2.806 9.86786 3.05331 9.54482 3.37406C9.22179 3.69484 8.97216 4.07063 8.79678 4.49222C8.62139 4.91389 8.53799 5.3542 8.53799 5.81253V7.07718L14.954 13.7139C15.3416 12.999 15.5172 12.1833 15.4618 11.3584V5.81253C15.4618 5.3542 15.3784 4.91389 15.203 4.49222C15.0276 4.07064 14.778 3.69483 14.455 3.37406C14.132 3.05333 13.7535 2.80599 13.329 2.63187C12.9044 2.45772 12.4522 2.37503 11.9999 2.37503Z" fill="#3C3B44"/>
<path d="M7.83682 10.625C8.21528 10.625 8.5292 10.9367 8.5292 11.3125C8.5292 12.4856 8.7785 13.2921 9.10146 13.8604C9.42445 14.4286 9.85827 14.7865 10.3104 15.0157C11.2329 15.492 12.2386 15.4286 12.4335 15.4102C12.8119 15.3644 13.1538 15.639 13.2001 16.0147C13.2463 16.3905 12.9692 16.7296 12.5907 16.7754C12.3051 16.8098 11.1191 16.8851 9.91494 16.3506L9.67373 16.2354H9.66494C9.00956 15.8962 8.36325 15.3637 7.89248 14.5479C7.42181 13.7321 7.14444 12.6782 7.14443 11.3125C7.14443 10.9368 7.45843 10.6251 7.83682 10.625Z" fill="#3C3B44"/>
</g>
<defs>
<clipPath id="clip0_4191_696">
<rect width="24" height="24" fill="white"/>
</clipPath>
</defs>
</svg>

<svg xmlns="http://www.w3.org/2000/svg" width="24" height="24" fill="none" viewBox="0 0 24 24"><g fill="currentColor" clip-path="url(#a)"><path d="M5.216 9.264a.696.696 0 0 1 .553.674v2.346a6.07 6.07 0 0 0 1.883 4.226 6.17 6.17 0 0 0 4.34 1.677H12c.904 0 1.79-.192 2.612-.55l-.009.01a.69.69 0 0 1 .914.348.683.683 0 0 1-.351.907 8 8 0 0 1-2.474.623v2.788A.695.695 0 0 1 12 23a.695.695 0 0 1-.693-.687v-2.769A7.47 7.47 0 0 1 6.692 17.5a7.4 7.4 0 0 1-2.307-5.188V9.938c0-.376.314-.688.692-.688z"/><path fill-rule="evenodd" d="M12 1a4.83 4.83 0 0 1 3.434 1.402c.452.45.803.981 1.052 1.568.25.586.37 1.21.37 1.843v5.5c.082 1.191-.26 2.392-.915 3.419l1.034 1.072c.323-.413.61-.843.813-1.32.295-.687.452-1.44.452-2.191V9.938c0-.376.314-.688.693-.688l.137.014a.696.696 0 0 1 .555.674v2.355a7.1 7.1 0 0 1-1.67 4.528l2.852 2.953-.01-.01a.68.68 0 0 1-.019.971.69.69 0 0 1-.978-.017L7.357 7.838 3.194 3.539a.68.68 0 0 1 .018-.972.69.69 0 0 1 .978.019l2.973 3.089c.018-.587.13-1.155.35-1.695q.375-.895 1.053-1.569a4.8 4.8 0 0 1 1.578-1.045C10.735 1.12 11.382 1.018 12 1m0 1.375c-.443-.037-.905.083-1.33.257a3.41 3.41 0 0 0-2.133 3.18v1.265l6.417 6.637c.388-.715.563-1.53.508-2.356V5.813q.002-.69-.259-1.32a3.4 3.4 0 0 0-1.874-1.861 3.5 3.5 0 0 0-1.33-.257" clip-rule="evenodd"/><path d="M7.837 10.625c.378 0 .692.312.692.688 0 1.173.25 1.98.572 2.547a2.84 2.84 0 0 0 1.21 1.156c.922.476 1.928.413 2.123.394a.693.693 0 0 1 .766.605.69.69 0 0 1-.61.76 5.5 5.5 0 0 1-2.675-.424l-.241-.116h-.01a4.3 4.3 0 0 1-1.772-1.687c-.47-.816-.748-1.87-.748-3.235 0-.376.314-.688.693-.688"/></g><defs><clipPath id="a"><path fill="currentColor" d="M0 0h24v24H0z"/></clipPath></defs></svg>
